src/main/resources/icons/PythonUltimateIcons/icons/com/jetbrains/web2py/web2py-logo.svg

<svg xmlns="http://www.w3.org/2000/svg" width="16" height="16" viewBox="0 0 16 16">
  <g fill="none" fill-rule="evenodd">
    <rect width="14" height="14" x="1" y="1" fill="#486661" fill-rule="nonzero"/>
    <polygon fill="#EDF5F2" points="3.693 6.614 2 2.065 3.169 2.065 4.196 5.124 5.308 2.052 6.243 2.052 7.355 5.124 8.382 2.065 9.523 2.065 7.83 6.614 6.88 6.614 5.761 3.659 4.642 6.614"/>
    <path fill="#A0B1B0" d="M9.43243,6.5821127 L9.43243,5.79476376 L11.4478215,4.5621109 C12.2003497,4.09744595 12.4944412,3.85220612 12.4944412,3.47789269 C12.4944412,3.09712558 12.1571009,2.89060782 11.6813647,2.89060782 C11.2142783,2.89060782 10.8942376,3.08421822 10.4444506,3.49725373 L9.51027774,2.93578358 C10.1071104,2.32913767 10.6866436,2 11.7678622,2 C13.0220758,2 13.8524518,2.54856279 13.8524518,3.39399485 L13.8524518,3.40690221 C13.8524518,4.16198275 13.3334668,4.53629618 12.2608979,5.15584945 L11.2748265,5.72377328 L13.913,5.72377328 L13.913,6.5821127 L9.43243,6.5821127 Z"/>
    <path fill="#EDF5F2" d="M7.89055053,9.06844046 L9.17187546,9.06844046 L10.4648614,11.0239712 L11.7810746,9.06844046 L13.136,9.06844046 L11.0532861,11.998257 L11.0532861,13.9398694 L9.8609518,13.9398694 L9.8609518,12.0191346 L9.3515603,11.2974519 C8.85358509,12.4784407 6.63874,12.4784407 5.67593892,12.4784407 L4.86171437,12.4784407 L4.86171437,13.9398694 L3.79,13.9398694 L3.79,9.06844046 L5.78032668,9.06844046 L7.89055053,9.06844046 Z M4.86171437,11.5250325 L5.71073484,11.5250325 C6.24659202,11.5250325 8.36644389,11.6932676 8.36644389,10.787359 C8.36644389,9.88145032 6.22571447,10.0357671 5.68985729,10.0357671 L4.86171437,10.0357671 L4.86171437,11.5250325 Z"/>
  </g>
</svg>

<svg xmlns="http://www.w3.org/2000/svg" width="16" height="16" viewBox="0 0 16 16"><rect id="frame" width="16" height="16" fill="none"/><g fill="none" fill-rule="evenodd"><path fill="#486661" fill-rule="nonzero" d="M1 1h14v14H1z"/><path fill="#EDF5F2" d="M3.693 6.614L2 2.065h1.169l1.027 3.059 1.112-3.072h.935l1.112 3.072 1.027-3.059h1.141L7.83 6.614h-.95L5.761 3.659 4.642 6.614z"/><path fill="#A0B1B0" d="M9.432 6.582v-.787l2.016-1.233c.752-.465 1.046-.71 1.046-1.084 0-.38-.337-.587-.813-.587-.467 0-.787.193-1.237.606l-.934-.561C10.107 2.329 10.687 2 11.768 2c1.254 0 2.084.549 2.084 1.394v.013c0 .755-.519 1.13-1.591 1.749l-.986.568h2.638v.858h-4.48z"/><path fill="#EDF5F2" d="M7.89 9.068h1.282l1.293 1.956 1.316-1.956h1.355l-2.083 2.93v1.942H9.861v-1.92l-.51-.723c-.497 1.181-2.712 1.181-3.675 1.181h-.814v1.462H3.79V9.068h4.1zm-3.028 2.457h.849c.536 0 2.655.168 2.655-.738s-2.14-.751-2.676-.751h-.828v1.489z"/></g></svg>
